icons/linear-new-office-doc-document-circle-close-delete.svg

<svg xmlns="http://www.w3.org/2000/svg" width="32px" height="32px" viewBox="0 0 32 32" version="1.1">
    <title>linear-new-office-doc-document-circle-close-delete</title>
    <g id="linear-new-office-doc-document-circle-close-delete" stroke-width="1" fill-rule="evenodd">
        <path d="M23,17 C26.8659932,17 30,20.1340068 30,24 C30,27.8659932 26.8659932,31 23,31 C19.1340068,31 16,27.8659932 16,24 C16,20.1340068 19.1340068,17 23,17 Z M27,2 C27.5522847,2 28,2.44771525 28,3 L28.00121,16.5163591 C27.3840325,16.1030892 26.7128866,15.7641414 26.000578,15.5123214 L26,4 L6,4 L6,28 L14.9360629,28.001093 C15.297945,28.7290394 15.7554943,29.4010412 16.2922591,30.0006464 L5,30 C4.44771525,30 4,29.5522847 4,29 L4,3 C4,2.44771525 4.44771525,2 5,2 L27,2 Z M23,19 C20.2385763,19 18,21.2385763 18,24 C18,26.7614237 20.2385763,29 23,29 C25.7614237,29 28,26.7614237 28,24 C28,21.2385763 25.7614237,19 23,19 Z M21.7071068,21.2928932 L23,22.585 L24.2928932,21.2928932 C24.6834175,20.9023689 25.3165825,20.9023689 25.7071068,21.2928932 C26.0976311,21.6834175 26.0976311,22.3165825 25.7071068,22.7071068 L24.415,24 L25.7071068,25.2928932 C26.0976311,25.6834175 26.0976311,26.3165825 25.7071068,26.7071068 C25.3165825,27.0976311 24.6834175,27.0976311 24.2928932,26.7071068 L23,25.415 L21.7071068,26.7071068 C21.3165825,27.0976311 20.6834175,27.0976311 20.2928932,26.7071068 C19.9023689,26.3165825 19.9023689,25.6834175 20.2928932,25.2928932 L21.585,24 L20.2928932,22.7071068 C19.9023689,22.3165825 19.9023689,21.6834175 20.2928932,21.2928932 C20.6834175,20.9023689 21.3165825,20.9023689 21.7071068,21.2928932 Z M15,14 C15.5522847,14 16,14.4477153 16,15 C16,15.5522847 15.5522847,16 15,16 L11,16 C10.4477153,16 10,15.5522847 10,15 C10,14.4477153 10.4477153,14 11,14 L15,14 Z M21,8 C21.5522847,8 22,8.44771525 22,9 C22,9.55228475 21.5522847,10 21,10 L11,10 C10.4477153,10 10,9.55228475 10,9 C10,8.44771525 10.4477153,8 11,8 L21,8 Z" id="&#24418;&#29366;" fill-rule="nonzero" />
    </g>
</svg>

<svg xmlns="http://www.w3.org/2000/svg" viewBox="0 0 32 32"><path fill="currentColor" d="M23 17a7 7 0 1 1 0 14 7 7 0 0 1 0-14m4-15a1 1 0 0 1 1 1l.001 13.516a8.968 8.968 0 0 0-2-1.004L26 4H6v24l8.936.001c.362.728.82 1.4 1.356 2L5 30a1 1 0 0 1-1-1V3a1 1 0 0 1 1-1zm-4 17a5 5 0 1 0 0 10 5 5 0 0 0 0-10m-1.293 2.293L23 22.585l1.293-1.292a1 1 0 0 1 1.414 1.414L24.415 24l1.292 1.293a1 1 0 0 1-1.414 1.414L23 25.415l-1.293 1.292a1 1 0 0 1-1.414-1.414L21.585 24l-1.292-1.293a1 1 0 0 1 1.414-1.414M15 14a1 1 0 0 1 0 2h-4a1 1 0 0 1 0-2zm6-6a1 1 0 0 1 0 2H11a1 1 0 0 1 0-2z"/></svg>
